svgs/light/thumbtack.svg

<svg xmlns="http://www.w3.org/2000/svg" viewBox="0 0 384 512"><!--! Font Awesome Pro 6.1.1 by @fontawesome - https://fontawesome.com License - https://fontawesome.com/license (Commercial License) Copyright 2022 Fonticons, Inc. --><path d="M176 352H32C22.15 352 12.84 347.5 6.778 339.7C.7133 331.9-1.434 321.8 .9555 312.2L7.202 287.3C17.51 246 42.58 211.5 75.93 188.9L88 32H64C61.11 32 58.41 31.24 56.07 29.9C51.25 27.14 48 21.95 48 16C48 7.164 55.16 0 64 0H320C328.8 0 336 7.164 336 16C336 21.95 332.8 27.14 327.9 29.9C325.6 31.24 322.9 32 320 32H296L308.1 188.9C341.4 211.5 366.5 246 376.8 287.3L383 312.2C385.4 321.8 383.3 331.9 377.2 339.7C371.2 347.5 361.9 352 352 352H208V496C208 504.8 200.8 512 191.1 512C183.2 512 175.1 504.8 175.1 496L176 352zM106.7 206.8L93.89 215.4C66.87 233.7 46.59 261.6 38.25 295L32 320H176V224C176 215.2 183.2 208 192 208C200.8 208 208 215.2 208 224V320H352L345.8 295C337.4 261.6 317.1 233.7 290.1 215.4L277.4 206.8L263.9 32H120.1L106.7 206.8z"/></svg>

<svg xmlns="http://www.w3.org/2000/svg" viewBox="0 0 384 512"><!--! Font Awesome Pro 6.4.2 by @fontawesome - https://fontawesome.com License - https://fontawesome.com/license (Commercial License) Copyright 2023 Fonticons, Inc. --><path d="M119.9 34.5L107.8 191.4c-.7 9.7-5.9 18.6-13.9 24c-27 18.3-47.3 46.2-55.6 79.6L32 320l144 0V224c0-8.8 7.2-16 16-16s16 7.2 16 16v96l144 0-6.2-25c-8.3-33.4-28.6-61.3-55.6-79.6c-8.1-5.5-13.2-14.3-13.9-24L264.1 34.5c-.1-.8-.1-1.6-.1-2.5H120c0 .8 0 1.6-.1 2.5zM176 352H32c-9.9 0-19.2-4.5-25.2-12.3S-1.4 321.8 1 312.2l6.2-25c10.3-41.3 35.4-75.7 68.7-98.3L85.5 64 88 32H64c-2.9 0-5.6-.8-7.9-2.1C51.2 27.1 48 21.9 48 16C48 7.2 55.2 0 64 0H88 296h24c8.8 0 16 7.2 16 16c0 5.9-3.2 11.1-8.1 13.9c-2.3 1.3-5 2.1-7.9 2.1H296l2.5 32 9.6 124.9c33.3 22.6 58.4 57.1 68.7 98.3l6.2 25c2.4 9.6 .2 19.7-5.8 27.5s-15.4 12.3-25.2 12.3H208V496c0 8.8-7.2 16-16 16s-16-7.2-16-16V352z"/></svg>
